!!!COM: Vincenti, Leopoldo Benedetto
!!!CDT: 1815-1914
!!!OTL: National Anthem, Bolivia
!!!ENC: Davis, Matthew J.
!!Vocal Line Only
**kern
*clefG2
*k[]
*X:
*M4/4
=1-
1r
=2
1r
=3
1r
=4
1r
=5
2r
4r
8.g
16ee
=6
4ee
8.dd
16cc
4cc
8.b
16a
=7
2a
8g
8r
8.f
16e
=8
8.d
16e
8.f
16g
8.a
16b
8.cc
16dd
=9
2ee
8cc
8r
8.g
16ee
=10
4ee
8.dd
16cc
4cc
8.b
16a
=11
2a
8g
8r
6g
6f#
6e
=12
4d
8.g
16b
8.ee
16dd
8.cc
16a
=13
4g
4r
4r
8.g
16g
=14
4g
8.g
16g
8.g
16f
8.g
16a-
=15
2b-
8g
8r
8.a-
16g
=16
8.f
16e-
8.f
16g
8.a-
16b-
8.dd
16cc
=17
4.b-
8ab
8g
8r
8.g
16g
=18
8.g
16an
8.g
16an
8.g
16an
8.g
16an
=19
4.g
8f
8e
8r
8.g
16g
=20
4a
8.g
16cc
8.b
16a
6a
6g
6f
=21
4e
4r
4r
8.g
16g
=22
8.g
16a
8.g
16a
8.g
16a
8.g
16a
=23
4.g
16a
16b
8cc
8a
8.f
16a
=24
4a
8g
16r
16cc
8.b
16a
6a
6g
6f
=25
4e
4r
4r
!Chorus
8.ee-
16dd-
=26
2cc
8a-
16r
16ee-
8.ee-
16dd-
=27
2cc
8a-
8r
8.b-
16a
=28
8.g
16f
8.g
16a-
8.b-
16cc
8.dd-
16ddn
=29
2ee-
8cc
8r
8.ee
16dd-
=30
4.cc
8b-
8a-
16r
16cc
6cc
6dd-
6ddn
=31
2ee-
8cc
8r
8.cc
16ddn
=32
4een
8.cc
16cc
4dd
8.b
16b
=33
4cc
4r
4r
8.cc
16dd
=34
4ee
8.cc
16cc
4dd
8.b
16b
=35
4cc
4r
4r
8.cc
16dd
=36
4ee
8.cc
16cc
4dd
8.b
16b
=37
4cc
4r
2r
=38
1r
1r
==|!
*-
